icon/lg/ifttt.svg

<?xml version="1.0" encoding="UTF-8"?>
<svg viewBox="0 0 512 136" version="1.1" xmlns="http://www.w3.org/2000/svg" xmlns:xlink="http://www.w3.org/1999/xlink" preserveAspectRatio="xMidYMid" height="1em" width="1em">
  <g>
    <path d="M0,0 L43.1807229,0 L43.1807229,135.710843 L0,135.710843 L0,0 Z M246.746988,0 L172.722892,0 L172.722892,43.1807229 L203.566265,43.1807229 L203.566265,135.710843 L246.746988,135.710843 L246.746988,43.1807229 L277.590361,43.1807229 L277.590361,0 L246.746988,0 Z M363.951807,0 L289.927711,0 L289.927711,43.1807229 L320.771084,43.1807229 L320.771084,135.710843 L363.951807,135.710843 L363.951807,43.1807229 L394.795181,43.1807229 L394.795181,0 L363.951807,0 Z M481.156627,0 L407.13253,0 L407.13253,43.1807229 L437.975904,43.1807229 L437.975904,135.710843 L481.156627,135.710843 L481.156627,43.1807229 L512,43.1807229 L512,0 L481.156627,0 Z M160.385542,43.1807229 L160.385542,0 L61.686747,0 L61.686747,135.710843 L104.86747,135.710843 L104.86747,98.6987952 L141.879518,98.6987952 L141.879518,55.5180723 L104.86747,55.5180723 L104.86747,43.1807229 L160.385542,43.1807229 Z" fill="#000000" fill-rule="nonzero"/>
  </g>
</svg>

<svg width="512" height="136" xmlns="http://www.w3.org/2000/svg" preserveAspectRatio="xMidYMid"><path d="M0 0h43.18v135.71H0V0Zm246.747 0h-74.024v43.18h30.843v92.53h43.181V43.18h30.843V0h-30.843Zm117.205 0h-74.024v43.18h30.843v92.53h43.18V43.18h30.844V0h-30.843Zm117.205 0h-74.024v43.18h30.843v92.53h43.18V43.18H512V0h-30.843ZM160.386 43.18V0h-98.7v135.71h43.181V98.7h37.013v-43.18h-37.013V43.18h55.519Z"/></svg>
